Newaita-dark/apps/48/hyperterm.svg

<svg height="48" viewBox="0 0 48 48" width="48" xmlns="http://www.w3.org/2000/svg" xmlns:xlink="http://www.w3.org/1999/xlink"><linearGradient id="a" gradientUnits="userSpaceOnUse" x1="22.822488" x2="22.822488" y1="42.0509015" y2="44.03546750005"><stop offset="0" stop-opacity=".27451"/><stop offset="1" stop-opacity="0"/></linearGradient><linearGradient id="b"><stop offset="0" stop-opacity=".313726"/><stop offset=".222222" stop-opacity=".27451"/><stop offset="1" stop-opacity="0"/></linearGradient><radialGradient id="c" cx="450.908936" cy="189.579361" gradientTransform="matrix(.00000026 -.117199 -.210958 -.00000015 80.180533 95.392999)" gradientUnits="userSpaceOnUse" r="21.166656" xlink:href="#b"/><radialGradient id="d" cx="450.908936" cy="189.579361" gradientTransform="matrix(-.00000026 .117199 .210958 .00000015 -32.550981 -11.291218)" gradientUnits="userSpaceOnUse" r="21.166656" xlink:href="#b"/><radialGradient id="e" cx="450.908936" cy="189.579361" gradientTransform="matrix(-.00000026 -.117199 .210958 -.00000015 -32.550981 95.392999)" gradientUnits="userSpaceOnUse" r="21.166656" xlink:href="#b"/><radialGradient id="f" cx="450.908936" cy="189.579361" gradientTransform="matrix(.00000026 .117199 -.210958 .00000015 80.18053 -11.291219)" gradientUnits="userSpaceOnUse" r="21.166656" xlink:href="#b"/><linearGradient id="g" gradientTransform="matrix(.10811 0 0 .285939 -7.36381 46.764738)" gradientUnits="userSpaceOnUse" x1="306.752655" x2="305.954529" y1="-16.485477" y2="-141.414581"><stop offset="0" stop-color="#ffa726"/><stop offset="1" stop-color="#f06292"/></linearGradient><linearGradient id="h" gradientTransform="matrix(.0978141 0 0 .238283 -4.39442 42.009968)" gradientUnits="userSpaceOnUse" x1="308.684967" x2="308.684967" y1=".171737" y2="-149.743195"><stop offset="0" stop-color="#424242"/><stop offset="1" stop-color="#616161"/></linearGradient><path d="m6.945312 42.160156h33.738282v1.875h-33.738282zm0 0" fill="url(#a)"/><path d="m40.683594 42.050781h3.96875v-1.984375h-3.96875zm0 0" fill="url(#c)"/><path d="m6.945312 42.050781h-3.96875v1.984375h3.96875zm0 0" fill="url(#d)"/><path d="m6.945312 42.050781h-3.96875v-1.984375h3.96875zm0 0" fill="url(#e)"/><path d="m40.683594 42.050781h3.96875v1.984375h-3.96875zm0 0" fill="url(#f)"/><path d="m4.960938 6.328125h37.707031c1.097656 0 1.984375.839844 1.984375 1.875v31.972656c0 1.035157-.886719 1.875-1.984375 1.875h-37.707031c-1.09375 0-1.984376-.839843-1.984376-1.875v-31.972656c0-1.035156.890626-1.875 1.984376-1.875zm0 0" fill="url(#g)"/><path d="m4.960938 6.328125c-1.097657 0-1.984376.835937-1.984376 1.875v.496094c0-1.039063.886719-1.875 1.984376-1.875h37.707031c1.101562 0 1.984375.835937 1.984375 1.875v-.496094c0-1.039063-.882813-1.875-1.984375-1.875zm0 0" fill="#fff" fill-opacity=".392157"/><path d="m4.960938 42.066406c-1.097657 0-1.984376-.835937-1.984376-1.875v-.496094c0 1.039063.886719 1.875 1.984376 1.875h37.707031c1.101562 0 1.984375-.835937 1.984375-1.875v.496094c0 1.039063-.882813 1.875-1.984375 1.875zm0 0" fill-opacity=".235294"/><path d="m5.953125 8.195312c-.613281 0-1.109375.496094-1.109375 1.109376v27.785156c0 .613281.496094 1.109375 1.109375 1.109375h35.722656c.613281 0 1.109375-.496094 1.109375-1.109375v-27.785156c0-.613282-.496094-1.109376-1.109375-1.109376zm0 .234376h35.722656c.488281 0 .875.390624.875.875v27.785156c0 .488281-.386719.875-.875.875h-35.722656c-.484375 0-.875-.386719-.875-.875v-27.785156c0-.484376.390625-.875.875-.875zm0 0" fill="#111" fill-opacity=".588235"/><path d="m5.953125 8.3125h35.722656c.546875 0 .992188.445312.992188.992188v27.785156c0 .546875-.445313.992187-.992188.992187h-35.722656c-.546875 0-.992187-.445312-.992187-.992187v-27.785156c0-.546876.445312-.992188.992187-.992188zm0 0" fill="url(#h)"/><path d="m5.953125 8.445312c-.476563 0-.859375.386719-.859375.859376v27.785156c0 .476562.382812.859375.859375.859375h35.722656c.476563 0 .863281-.382813.863281-.859375v-27.785156c0-.472657-.386718-.859376-.863281-.859376zm0 .234376h35.722656c.347657 0 .628907.277343.628907.625v27.785156c0 .347656-.28125.625-.628907.625h-35.722656c-.347656 0-.625-.277344-.625-.625v-27.785156c0-.347657.277344-.625.625-.625zm0 0" fill="#dedede" fill-opacity=".705882"/><path d="m52.911614-147.506445h402.169928c11.707215 0 21.164645 8.957478 21.164645 19.99809v341.009102c0 11.040612-9.45743 19.99809-21.164645 19.99809h-402.169928c-11.665553 0-21.164646-8.957478-21.164646-19.99809v-341.009102c0-11.040612 9.499093-19.99809 21.164646-19.99809zm0 0" fill="none" stroke="#212121" stroke-linecap="round" stroke-width="3" transform="matrix(.093759 0 0 .093759 0 20.158175)"/><path d="m24.84375 14.269531c-.355469-.011719-.691406.164063-.878906.464844l-4.960938 7.9375c-.308594.496094-.125 1.152344.398438 1.414063l3.421875 1.097656-1.933594 5.636718c-.15625.464844.050781.96875.480469 1.191407.429687.226562.960937.109375 1.253906-.28125l5.953125-7.9375c.371094-.496094.203125-1.207031-.351563-1.484375l-3.417968-1.09375.976562-5.792969c.097656-.589844-.34375-1.132813-.941406-1.152344zm0 0" fill="#ececec" fill-opacity=".588235"/><path d="m25.714844 15.847656-.90625 5.367188.15625.050781.820312-4.851563c.035156-.199218.003906-.394531-.070312-.566406zm2.929687 7.847656c-.023437.03125-.042969.066407-.066406.097657l-5.953125 7.9375c-.292969.390625-.824219.507812-1.253906.28125-.179688-.09375-.320313-.234375-.410156-.402344l-.070313.203125c-.15625.464844.050781.96875.480469 1.195312.429687.222657.960937.105469 1.253906-.285156l5.953125-7.9375c.25-.332031.253906-.761718.066406-1.089844zm-9.65625 0c-.285156.492188-.097656 1.125.414063 1.382813l3.113281.996094.308594-.890625-3.421875-1.097656c-.179688-.09375-.320313-.230469-.414063-.390626zm0 0" fill-opacity=".235294"/><path d="m24.777344 14.269531c-.332032.007813-.636719.183594-.8125.464844l-4.960938 7.9375c-.203125.324219-.191406.714844-.015625 1.019531.003907-.007812.011719-.019531.015625-.027344l4.960938-7.941406c.1875-.296875.523437-.476562.878906-.464844.394531.015626.722656.257813.871094.589844l.070312-.425781c.097656-.589844-.34375-1.132813-.941406-1.152344-.023438 0-.046875 0-.066406 0zm.1875 6.996094-.15625.9375 3.417968 1.097656c.183594.089844.324219.230469.417969.390625.28125-.484375.101563-1.121094-.417969-1.382812zm-2.449219 4.808594-1.625 4.746093c-.089844.269532-.058594.554688.070313.789063l1.863281-5.4375zm0 0" fill="#fff" fill-opacity=".392157"/><path d="m264.974696-62.8062c-3.791304-.124989-7.374296 1.749832-9.374105 4.957859l-52.911613 84.658583c-3.291353 5.291161-1.333207 12.290493 4.249594 15.081893l36.496514 11.707215-20.62303 60.119259c-1.666508 4.95786.541615 10.332347 5.12451 12.70712 4.582896 2.416436 10.249022 1.166555 13.373723-2.999714l63.493937-84.658582c3.957955-5.291161 2.16646-12.873771-3.749642-15.831821l-36.454852-11.665553 10.415672-61.785766c1.041567-6.291066-3.666317-12.08218-10.040708-12.290493zm0 0" fill="none" stroke="#212121" stroke-linecap="round" stroke-linejoin="round" stroke-width="3" transform="matrix(.093759 0 0 .093759 0 20.158175)"/></svg>

<?xml version="1.0" encoding="UTF-8"?>
<svg xmlns="http://www.w3.org/2000/svg" xmlns:xlink="http://www.w3.org/1999/xlink" width="48px" height="48px" viewBox="0 0 48 48" version="1.1">
<defs>
<linearGradient id="linear0" gradientUnits="userSpaceOnUse" x1="254" y1="233.5" x2="254" y2="254.666672" gradientTransform="matrix(0.093759,0,0,0.093759,-0.992298,20.158175)">
<stop offset="0" style="stop-color:rgb(0%,0%,0%);stop-opacity:0.27451;"/>
<stop offset="1" style="stop-color:rgb(0%,0%,0%);stop-opacity:0;"/>
</linearGradient>
<radialGradient id="radial0" gradientUnits="userSpaceOnUse" cx="450.908936" cy="189.579361" fx="450.908936" fy="189.579361" r="21.166656" gradientTransform="matrix(0.000000261256,-0.117199,-0.210958,-0.000000152308,80.180533,95.392999)">
<stop offset="0" style="stop-color:rgb(0%,0%,0%);stop-opacity:0.313726;"/>
<stop offset="0.222222" style="stop-color:rgb(0%,0%,0%);stop-opacity:0.27451;"/>
<stop offset="1" style="stop-color:rgb(0%,0%,0%);stop-opacity:0;"/>
</radialGradient>
<radialGradient id="radial1" gradientUnits="userSpaceOnUse" cx="450.908936" cy="189.579361" fx="450.908936" fy="189.579361" r="21.166656" gradientTransform="matrix(-0.000000261256,0.117199,0.210958,0.000000152308,-32.550981,-11.291218)">
<stop offset="0" style="stop-color:rgb(0%,0%,0%);stop-opacity:0.313726;"/>
<stop offset="0.222222" style="stop-color:rgb(0%,0%,0%);stop-opacity:0.27451;"/>
<stop offset="1" style="stop-color:rgb(0%,0%,0%);stop-opacity:0;"/>
</radialGradient>
<radialGradient id="radial2" gradientUnits="userSpaceOnUse" cx="450.908936" cy="189.579361" fx="450.908936" fy="189.579361" r="21.166656" gradientTransform="matrix(-0.000000261256,-0.117199,0.210958,-0.000000152308,-32.550981,95.392999)">
<stop offset="0" style="stop-color:rgb(0%,0%,0%);stop-opacity:0.313726;"/>
<stop offset="0.222222" style="stop-color:rgb(0%,0%,0%);stop-opacity:0.27451;"/>
<stop offset="1" style="stop-color:rgb(0%,0%,0%);stop-opacity:0;"/>
</radialGradient>
<radialGradient id="radial3" gradientUnits="userSpaceOnUse" cx="450.908936" cy="189.579361" fx="450.908936" fy="189.579361" r="21.166656" gradientTransform="matrix(0.000000261256,0.117199,-0.210958,0.000000152308,80.18053,-11.291219)">
<stop offset="0" style="stop-color:rgb(0%,0%,0%);stop-opacity:0.313726;"/>
<stop offset="0.222222" style="stop-color:rgb(0%,0%,0%);stop-opacity:0.27451;"/>
<stop offset="1" style="stop-color:rgb(0%,0%,0%);stop-opacity:0;"/>
</radialGradient>
<linearGradient id="linear1" gradientUnits="userSpaceOnUse" x1="306.752655" y1="-16.485477" x2="305.954529" y2="-141.414581" gradientTransform="matrix(0.10811,0,0,0.285939,-7.36381,46.764738)">
<stop offset="0" style="stop-color:rgb(100%,65.490198%,14.901961%);stop-opacity:1;"/>
<stop offset="1" style="stop-color:rgb(94.117647%,38.431373%,57.254905%);stop-opacity:1;"/>
</linearGradient>
<linearGradient id="linear2" gradientUnits="userSpaceOnUse" x1="308.684967" y1="0.171737" x2="308.684967" y2="-149.743195" gradientTransform="matrix(0.0978141,0,0,0.238283,-4.39442,42.009968)">
<stop offset="0" style="stop-color:rgb(25.882354%,25.882354%,25.882354%);stop-opacity:1;"/>
<stop offset="1" style="stop-color:rgb(38.039216%,38.039216%,38.039216%);stop-opacity:1;"/>
</linearGradient>
</defs>
<g id="surface1">
<path style=" stroke:none;fill-rule:nonzero;fill:url(#linear0);" d="M 6.945312 42.160156 L 40.683594 42.160156 L 40.683594 44.035156 L 6.945312 44.035156 Z M 6.945312 42.160156 "/>
<path style=" stroke:none;fill-rule:nonzero;fill:url(#radial0);" d="M 40.683594 42.050781 L 44.652344 42.050781 L 44.652344 40.066406 L 40.683594 40.066406 Z M 40.683594 42.050781 "/>
<path style=" stroke:none;fill-rule:nonzero;fill:url(#radial1);" d="M 6.945312 42.050781 L 2.976562 42.050781 L 2.976562 44.035156 L 6.945312 44.035156 Z M 6.945312 42.050781 "/>
<path style=" stroke:none;fill-rule:nonzero;fill:url(#radial2);" d="M 6.945312 42.050781 L 2.976562 42.050781 L 2.976562 40.066406 L 6.945312 40.066406 Z M 6.945312 42.050781 "/>
<path style=" stroke:none;fill-rule:nonzero;fill:url(#radial3);" d="M 40.683594 42.050781 L 44.652344 42.050781 L 44.652344 44.035156 L 40.683594 44.035156 Z M 40.683594 42.050781 "/>
<path style=" stroke:none;fill-rule:nonzero;fill:url(#linear1);" d="M 4.960938 6.328125 L 42.667969 6.328125 C 43.765625 6.328125 44.652344 7.167969 44.652344 8.203125 L 44.652344 40.175781 C 44.652344 41.210938 43.765625 42.050781 42.667969 42.050781 L 4.960938 42.050781 C 3.867188 42.050781 2.976562 41.210938 2.976562 40.175781 L 2.976562 8.203125 C 2.976562 7.167969 3.867188 6.328125 4.960938 6.328125 Z M 4.960938 6.328125 "/>
<path style=" stroke:none;fill-rule:nonzero;fill:rgb(100%,100%,100%);fill-opacity:0.392157;" d="M 4.960938 6.328125 C 3.863281 6.328125 2.976562 7.164062 2.976562 8.203125 L 2.976562 8.699219 C 2.976562 7.660156 3.863281 6.824219 4.960938 6.824219 L 42.667969 6.824219 C 43.769531 6.824219 44.652344 7.660156 44.652344 8.699219 L 44.652344 8.203125 C 44.652344 7.164062 43.769531 6.328125 42.667969 6.328125 Z M 4.960938 6.328125 "/>
<path style=" stroke:none;fill-rule:nonzero;fill:rgb(0%,0%,0%);fill-opacity:0.235294;" d="M 4.960938 42.066406 C 3.863281 42.066406 2.976562 41.230469 2.976562 40.191406 L 2.976562 39.695312 C 2.976562 40.734375 3.863281 41.570312 4.960938 41.570312 L 42.667969 41.570312 C 43.769531 41.570312 44.652344 40.734375 44.652344 39.695312 L 44.652344 40.191406 C 44.652344 41.230469 43.769531 42.066406 42.667969 42.066406 Z M 4.960938 42.066406 "/>
<path style=" stroke:none;fill-rule:nonzero;fill:rgb(6.666667%,6.666667%,6.666667%);fill-opacity:0.588235;" d="M 5.953125 8.195312 C 5.339844 8.195312 4.84375 8.691406 4.84375 9.304688 L 4.84375 37.089844 C 4.84375 37.703125 5.339844 38.199219 5.953125 38.199219 L 41.675781 38.199219 C 42.289062 38.199219 42.785156 37.703125 42.785156 37.089844 L 42.785156 9.304688 C 42.785156 8.691406 42.289062 8.195312 41.675781 8.195312 Z M 5.953125 8.429688 L 41.675781 8.429688 C 42.164062 8.429688 42.550781 8.820312 42.550781 9.304688 L 42.550781 37.089844 C 42.550781 37.578125 42.164062 37.964844 41.675781 37.964844 L 5.953125 37.964844 C 5.46875 37.964844 5.078125 37.578125 5.078125 37.089844 L 5.078125 9.304688 C 5.078125 8.820312 5.46875 8.429688 5.953125 8.429688 Z M 5.953125 8.429688 "/>
<path style=" stroke:none;fill-rule:nonzero;fill:url(#linear2);" d="M 5.953125 8.3125 L 41.675781 8.3125 C 42.222656 8.3125 42.667969 8.757812 42.667969 9.304688 L 42.667969 37.089844 C 42.667969 37.636719 42.222656 38.082031 41.675781 38.082031 L 5.953125 38.082031 C 5.40625 38.082031 4.960938 37.636719 4.960938 37.089844 L 4.960938 9.304688 C 4.960938 8.757812 5.40625 8.3125 5.953125 8.3125 Z M 5.953125 8.3125 "/>
<path style=" stroke:none;fill-rule:nonzero;fill:rgb(87.058824%,87.058824%,87.058824%);fill-opacity:0.705882;" d="M 5.953125 8.445312 C 5.476562 8.445312 5.09375 8.832031 5.09375 9.304688 L 5.09375 37.089844 C 5.09375 37.566406 5.476562 37.949219 5.953125 37.949219 L 41.675781 37.949219 C 42.152344 37.949219 42.539062 37.566406 42.539062 37.089844 L 42.539062 9.304688 C 42.539062 8.832031 42.152344 8.445312 41.675781 8.445312 Z M 5.953125 8.679688 L 41.675781 8.679688 C 42.023438 8.679688 42.304688 8.957031 42.304688 9.304688 L 42.304688 37.089844 C 42.304688 37.4375 42.023438 37.714844 41.675781 37.714844 L 5.953125 37.714844 C 5.605469 37.714844 5.328125 37.4375 5.328125 37.089844 L 5.328125 9.304688 C 5.328125 8.957031 5.605469 8.679688 5.953125 8.679688 Z M 5.953125 8.679688 "/>
<path style="fill:none;stroke-width:3;stroke-linecap:round;stroke-linejoin:miter;stroke:rgb(12.941177%,12.941177%,12.941177%);stroke-opacity:1;stroke-miterlimit:4;" d="M 52.911614 -147.506445 L 455.081542 -147.506445 C 466.788757 -147.506445 476.246187 -138.548967 476.246187 -127.508355 L 476.246187 213.500747 C 476.246187 224.541359 466.788757 233.498837 455.081542 233.498837 L 52.911614 233.498837 C 41.246061 233.498837 31.746968 224.541359 31.746968 213.500747 L 31.746968 -127.508355 C 31.746968 -138.548967 41.246061 -147.506445 52.911614 -147.506445 Z M 52.911614 -147.506445 " transform="matrix(0.093759,0,0,0.093759,0,20.158175)"/>
<path style=" stroke:none;fill-rule:nonzero;fill:rgb(92.54902%,92.54902%,92.54902%);fill-opacity:0.588235;" d="M 24.84375 14.269531 C 24.488281 14.257812 24.152344 14.433594 23.964844 14.734375 L 19.003906 22.671875 C 18.695312 23.167969 18.878906 23.824219 19.402344 24.085938 L 22.824219 25.183594 L 20.890625 30.820312 C 20.734375 31.285156 20.941406 31.789062 21.371094 32.011719 C 21.800781 32.238281 22.332031 32.121094 22.625 31.730469 L 28.578125 23.792969 C 28.949219 23.296875 28.78125 22.585938 28.226562 22.308594 L 24.808594 21.214844 L 25.785156 15.421875 C 25.882812 14.832031 25.441406 14.289062 24.84375 14.269531 Z M 24.84375 14.269531 "/>
<path style=" stroke:none;fill-rule:nonzero;fill:rgb(0%,0%,0%);fill-opacity:0.235294;" d="M 25.714844 15.847656 L 24.808594 21.214844 L 24.964844 21.265625 L 25.785156 16.414062 C 25.820312 16.214844 25.789062 16.019531 25.714844 15.847656 Z M 28.644531 23.695312 C 28.621094 23.726562 28.601562 23.761719 28.578125 23.792969 L 22.625 31.730469 C 22.332031 32.121094 21.800781 32.238281 21.371094 32.011719 C 21.191406 31.917969 21.050781 31.777344 20.960938 31.609375 L 20.890625 31.8125 C 20.734375 32.277344 20.941406 32.78125 21.371094 33.007812 C 21.800781 33.230469 22.332031 33.113281 22.625 32.722656 L 28.578125 24.785156 C 28.828125 24.453125 28.832031 24.023438 28.644531 23.695312 Z M 18.988281 23.695312 C 18.703125 24.1875 18.890625 24.820312 19.402344 25.078125 L 22.515625 26.074219 L 22.824219 25.183594 L 19.402344 24.085938 C 19.222656 23.992188 19.082031 23.855469 18.988281 23.695312 Z M 18.988281 23.695312 "/>
<path style=" stroke:none;fill-rule:nonzero;fill:rgb(100%,100%,100%);fill-opacity:0.392157;" d="M 24.777344 14.269531 C 24.445312 14.277344 24.140625 14.453125 23.964844 14.734375 L 19.003906 22.671875 C 18.800781 22.996094 18.8125 23.386719 18.988281 23.691406 C 18.992188 23.683594 19 23.671875 19.003906 23.664062 L 23.964844 15.722656 C 24.152344 15.425781 24.488281 15.246094 24.84375 15.257812 C 25.238281 15.273438 25.566406 15.515625 25.714844 15.847656 L 25.785156 15.421875 C 25.882812 14.832031 25.441406 14.289062 24.84375 14.269531 C 24.820312 14.269531 24.796875 14.269531 24.777344 14.269531 Z M 24.964844 21.265625 L 24.808594 22.203125 L 28.226562 23.300781 C 28.410156 23.390625 28.550781 23.53125 28.644531 23.691406 C 28.925781 23.207031 28.746094 22.570312 28.226562 22.308594 Z M 22.515625 26.074219 L 20.890625 30.820312 C 20.800781 31.089844 20.832031 31.375 20.960938 31.609375 L 22.824219 26.171875 Z M 22.515625 26.074219 "/>
<path style="fill:none;stroke-width:3;stroke-linecap:round;stroke-linejoin:round;stroke:rgb(12.941177%,12.941177%,12.941177%);stroke-opacity:1;stroke-miterlimit:4;" d="M 264.974696 -62.8062 C 261.183392 -62.931189 257.6004 -61.056368 255.600591 -57.848341 L 202.688978 26.810242 C 199.397625 32.101403 201.355771 39.100735 206.938572 41.892135 L 243.435086 53.59935 L 222.812056 113.718609 C 221.145548 118.676469 223.353671 124.050956 227.936566 126.425729 C 232.519462 128.842165 238.185588 127.592284 241.310289 123.426015 L 304.804226 38.767433 C 308.762181 33.476272 306.970686 25.893662 301.054584 22.935612 L 264.599732 11.270059 L 275.015404 -50.515707 C 276.056971 -56.806773 271.349087 -62.597887 264.974696 -62.8062 Z M 264.974696 -62.8062 " transform="matrix(0.093759,0,0,0.093759,0,20.158175)"/>
</g>
</svg>
